archdroid-icon-theme/Archdroid-DeepOrangeDark/categories/scalable/applications-boardgames.svg

<?xml version="1.0" encoding="UTF-8" standalone="no"?>
<!-- Created with Inkscape (http://www.inkscape.org/) -->

<svg
   xmlns:dc="http://purl.org/dc/elements/1.1/"
   xmlns:cc="http://creativecommons.org/ns#"
   xmlns:rdf="http://www.w3.org/1999/02/22-rdf-syntax-ns#"
   xmlns:svg="http://www.w3.org/2000/svg"
   xmlns="http://www.w3.org/2000/svg"
   xmlns:xlink="http://www.w3.org/1999/xlink"
   xmlns:sodipodi="http://sodipodi.sourceforge.net/DTD/sodipodi-0.dtd"
   xmlns:inkscape="http://www.inkscape.org/namespaces/inkscape"
   version="1.0"
   width="48"
   height="48"
   id="svg2408"
   inkscape:version="0.91 r13725"
   sodipodi:docname="applications-boardgames.svg">
  <sodipodi:namedview
     pagecolor="#ffffff"
     bordercolor="#666666"
     borderopacity="1"
     objecttolerance="10"
     gridtolerance="10"
     guidetolerance="10"
     inkscape:pageopacity="0"
     inkscape:pageshadow="2"
     inkscape:window-width="1366"
     inkscape:window-height="713"
     id="namedview75"
     showgrid="false"
     inkscape:zoom="1.54487959788404"
     inkscape:cx="191.5435991044688"
     inkscape:cy="43.67871279546445"
     inkscape:window-x="0"
     inkscape:window-y="30"
     inkscape:window-maximized="1"
     inkscape:current-layer="svg2408"
     fit-margin-top="0"
     fit-margin-left="0"
     fit-margin-right="0"
     fit-margin-bottom="0" />
  <defs
     id="defs2410">
    <linearGradient
       x1="45.44772720336914"
       y1="92.53959655761719"
       x2="45.44772720336914"
       y2="7.016539573669434"
       id="ButtonShadow"
       gradientUnits="userSpaceOnUse"
       gradientTransform="scale(1.0058652,0.9941689999999997)">
      <stop
         id="stop3750"
         style="stop-color:#000000;stop-opacity:1"
         offset="0" />
      <stop
         id="stop3752"
         style="stop-color:#000000;stop-opacity:0.58823532"
         offset="1" />
    </linearGradient>
    <linearGradient
       id="linearGradient3737">
      <stop
         id="stop3739"
         style="stop-color:#ffffff;stop-opacity:1"
         offset="0" />
      <stop
         id="stop3741"
         style="stop-color:#ffffff;stop-opacity:0"
         offset="1" />
    </linearGradient>
    <filter
       id="filter3174"
       style="color-interpolation-filters:sRGB">
      <feGaussianBlur
         id="feGaussianBlur3176"
         stdDeviation="1.71" />
    </filter>
    <filter
       x="-0.1920000016689301"
       y="-0.1920000016689301"
       width="1.383999943733215"
       height="1.383999943733215"
       id="filter3794"
       style="color-interpolation-filters:sRGB">
      <feGaussianBlur
         id="feGaussianBlur3796"
         stdDeviation="5.28" />
    </filter>
    <linearGradient
       x1="48"
       y1="20.22080612182617"
       x2="48"
       y2="138.6611938476562"
       id="linearGradient3613"
       xlink:href="#linearGradient3737"
       gradientUnits="userSpaceOnUse" />
    <clipPath
       id="clipPath3613">
      <rect
         width="84"
         height="84"
         rx="6"
         ry="6"
         x="6"
         y="6"
         id="rect3615"
         style="fill:#ffffff;fill-opacity:1;fill-rule:nonzero;stroke:none" />
    </clipPath>
  </defs>
  <metadata
     id="metadata2413">
    <rdf:RDF>
      <cc:Work
         rdf:about="">
        <dc:format>image/svg+xml</dc:format>
        <dc:type
           rdf:resource="http://purl.org/dc/dcmitype/StillImage" />
        <dc:title></dc:title>
      </cc:Work>
    </rdf:RDF>
  </metadata>
  <g
     id="layer2"
     style="display:none"
     transform="translate(-6,-42)">
    <rect
       width="86"
       height="85"
       rx="6"
       ry="6"
       x="5"
       y="7"
       id="rect3745"
       style="opacity:0.9;fill:url(#ButtonShadow);fill-opacity:1;fill-rule:nonzero;stroke:none;filter:url(#filter3174)" />
  </g>
  <path
     style="fill:#BF360C;fill-opacity:1;fill-rule:nonzero;stroke:none"
     d="M 8.571428571428569,6 C 7.146857142857141,6 6,7.146857142857141 6,8.571428571428569 L 6,39.42857142857143 C 6,40.85314285714285 7.146857142857141,42 8.571428571428569,42 L 39.42857142857143,42 C 40.85314285714285,42 42,40.85314285714285 42,39.42857142857143 L 42,8.571428571428569 C 42,7.146857142857141 40.85314285714285,6 39.42857142857143,6 L 8.571428571428569,6 Z m 5.142857142857141,4.28571428571428 a 3.428571428571429,3.428571428571429 0 0 1 0,6.85714285714286 3.428571428571431,3.428571428571431 0 1 1 0,-6.85714285714286 z m 20.57142857142858,0 a 3.428571428571429,3.428571428571429 0 0 1 0,6.85714285714286 3.428571428571431,3.428571428571431 0 1 1 0,-6.85714285714286 z M 24,20.57142857142857 a 3.428571428571431,3.428571428571431 0 0 1 0,6.85714285714286 3.428571428571431,3.428571428571431 0 1 1 0,-6.85714285714286 z M 13.71428571428571,30.85714285714286 a 3.428571428571428,3.428571428571428 0 0 1 0,6.85714285714285 3.428571428571428,3.428571428571428 0 1 1 0,-6.85714285714285 z m 20.57142857142858,0 a 3.428571428571428,3.428571428571428 0 0 1 0,6.85714285714285 3.428571428571428,3.428571428571428 0 1 1 0,-6.85714285714285 z"
     id="rect2419"
     inkscape:connector-curvature="0" />
  <g
     id="layer5"
     style="display:none"
     transform="translate(-6,-42)">
    <rect
       width="66"
       height="66"
       rx="12"
       ry="12"
       x="15"
       y="15"
       clip-path="url(#clipPath3613)"
       id="rect3171"
       style="opacity:0.1;fill:url(#linearGradient3613);fill-opacity:1;fill-rule:nonzero;stroke:#ffffff;stroke-width:0.5;stroke-linecap:round;stroke-linejoin:miter;stroke-miterlimit:4;stroke-dasharray:none;stroke-dashoffset:0;stroke-opacity:1;filter:url(#filter3794)" />
  </g>
</svg>

<svg xmlns="http://www.w3.org/2000/svg" viewBox="0 0 48 48"><path d="m8.571 6c-1.425 0-2.571 1.147-2.571 2.571v30.857c0 1.425 1.147 2.571 2.571 2.571h30.857c1.425 0 2.571-1.147 2.571-2.571v-30.857c0-1.425-1.147-2.571-2.571-2.571h-30.857m5.142857 4.285714a3.428571 3.428571 0 0 1 0 6.857143 3.428571 3.428571 0 1 1 0 -6.857143zm20.571429 0a3.428571 3.428571 0 0 1 0 6.857143 3.428571 3.428571 0 1 1 0 -6.857143m-10.285714 10.285714a3.428571 3.428571 0 0 1 0 6.857143 3.428571 3.428571 0 1 1 0 -6.857143m-10.285714 10.285714a3.428571 3.428571 0 0 1 0 6.857143 3.428571 3.428571 0 1 1 0 -6.857143m20.571429 0a3.428571 3.428571 0 0 1 0 6.857143 3.428571 3.428571 0 1 1 0 -6.857143" fill="#4caf50"/></svg>
